X:136
M:6/8
L:1/8
K:Bb
|:e3 c'ae|d3 efg|fdB Gec|AcB AGF|E3 cAE|Ddf Eeg|fdB ecA|BFD B,3:|

